svgs/:parcel:.svg

<svg xmlns="http://www.w3.org/2000/svg" width="24" height="24" viewBox="0 0 24 24"><path fill-rule="evenodd" d="M.12.159C.067.193.059 1.552.05 11.935.043 19.532.053 23.71.079 23.777l.039.103 5.691-.003c5.622-.003 5.687-.004 5.391-.077-.313-.077-.56-.166-2.74-.988-.726-.274-1.995-.749-2.82-1.057-4.073-1.517-4.312-1.62-4.679-2.018-.176-.192-.324-.482-.486-.957L.38 18.5V5.3l.137-.28c.16-.329.495-.682.77-.814.305-.147 3.166-1.213 3.253-1.212.072 0 9.74 3.6 10.989 4.091.28.11.55.234.6.274l.091.074.02 1.753.02 1.754.254-.43c.139-.236.266-.438.283-.448s.135.089.265.22c.129.131.249.238.266.238s.142-.189.278-.42.26-.42.275-.42.14.099.275.22a3 3 0 0 0 .261.22c.008 0 .073-.095.145-.21.29-.469.4-.63.432-.63.018 0 .143.101.279.223l.247.224-.005-1.674c-.002-.92-.016-1.727-.03-1.793-.019-.092-.067-.14-.205-.206-.099-.047-1.242-.483-2.54-.968-6.077-2.27-8.573-3.205-8.718-3.267l-.159-.067.139-.059c.295-.126 2.523-.951 2.974-1.101.453-.152.499-.159.98-.16.277 0 .585.021.684.048.227.06 3.579 1.295 7.174 2.641 1.916.718 2.789 1.064 2.856 1.13a.5.5 0 0 1 .117.255c.027.197-.098.363-.354.474-.225.097-.313.174-.285.246.029.075.204.039.462-.095.233-.122.378-.288.413-.472.014-.077.042-.139.061-.139.056 0 .275.317.401.58l.115.24v13.178l-.12.302c-.28.704-.466.975-.831 1.209-.292.186-.642.332-2.345.977-5.359 2.028-7.303 2.744-7.724 2.845-.044.011 2.471.022 5.589.024 5.565.005 5.669.004 5.71-.072.028-.053.041-3.801.041-11.818 0-10.619-.006-11.745-.063-11.802S22.668.12 11.987.121C4.616.121.157.135.12.159m22.392 4.982c-.012.012-.034-.01-.049-.049-.022-.057-.018-.062.022-.023.027.027.04.06.027.072m-.137.001c.014.036.007.052-.015.038s-.04-.042-.04-.062c0-.058.029-.045.055.024m-.095.018c0 .022-.019.04-.042.04s-.032-.018-.018-.04.033-.04.042-.04.018.018.018.04m-.293.029c-.01.017.007.054.037.083.046.042.056.041.056-.008 0-.068-.065-.12-.093-.075M5.404 9.299c-.553.392-1.785 1.329-1.945 1.479q-.142.133-.115.199c.034.089.296.217.864.423l.468.169.012 3.426c.009 2.56.025 3.452.061 3.534.029.065.125.147.239.204.266.133 1.591.629 1.752.655.26.042.248.2.276-3.525.013-1.846.033-3.365.043-3.375s.293.084.629.208c.594.218.752.259.752.192 0-.135-2.342-3.734-2.477-3.806-.131-.07-.18-.051-.559.217m12.276 6.637c-1.694.605-3.223 1.197-3.5 1.355l-.16.092-.012 1.438c-.006.792-.001 1.498.012 1.569.019.104.043.13.119.13.092 0 3.184-1.14 4.081-1.505.242-.099.463-.209.49-.245.038-.049.05-.408.05-1.473 0-.774-.011-1.463-.025-1.532-.02-.102-.044-.125-.13-.123-.058 0-.474.133-.925.294"/></svg>

<svg version="1.1" id="svg1" width="24" height="24" viewBox="0 0 24 24" sodipodi:docname=":parcel:.svg" inkscape:version="1.4.3 (0d15f75, 2025-12-25)" xmlns:inkscape="http://www.inkscape.org/namespaces/inkscape" xmlns:sodipodi="http://sodipodi.sourceforge.net/DTD/sodipodi-0.dtd" xmlns="http://www.w3.org/2000/svg" xmlns:svg="http://www.w3.org/2000/svg"><path d="M0.120 0.159 C 0.067 0.193,0.059 1.552,0.050 11.935 C 0.043 19.532,0.053 23.710,0.079 23.777 L 0.118 23.880 5.809 23.877 C 11.431 23.874,11.496 23.873,11.200 23.800 C 10.887 23.723,10.640 23.634,8.460 22.812 C 7.734 22.538,6.465 22.063,5.640 21.755 C 1.567 20.238,1.328 20.135,0.961 19.737 C 0.785 19.545,0.637 19.255,0.475 18.780 L 0.380 18.500 0.380 11.900 L 0.380 5.300 0.517 5.020 C 0.677 4.691,1.012 4.338,1.287 4.206 C 1.592 4.059,4.453 2.993,4.540 2.994 C 4.612 2.994,14.280 6.594,15.529 7.085 C 15.809 7.195,16.079 7.319,16.129 7.359 L 16.220 7.433 16.240 9.186 L 16.260 10.940 16.514 10.510 C 16.653 10.274,16.780 10.072,16.797 10.062 C 16.813 10.052,16.932 10.151,17.062 10.282 C 17.191 10.413,17.311 10.520,17.328 10.520 C 17.345 10.520,17.470 10.331,17.606 10.100 C 17.742 9.869,17.866 9.680,17.881 9.680 C 17.897 9.680,18.021 9.779,18.156 9.900 C 18.292 10.021,18.409 10.120,18.417 10.120 C 18.425 10.120,18.490 10.025,18.562 9.910 C 18.852 9.441,18.962 9.280,18.994 9.280 C 19.012 9.280,19.137 9.381,19.273 9.503 L 19.520 9.727 19.515 8.053 C 19.513 7.133,19.499 6.326,19.485 6.260 C 19.466 6.168,19.418 6.120,19.280 6.054 C 19.181 6.007,18.038 5.571,16.740 5.086 C 10.663 2.816,8.167 1.881,8.022 1.819 L 7.863 1.752 8.002 1.693 C 8.297 1.567,10.525 0.742,10.976 0.592 C 11.429 0.440,11.475 0.433,11.956 0.432 C 12.233 0.432,12.541 0.453,12.640 0.480 C 12.867 0.540,16.219 1.775,19.814 3.121 C 21.730 3.839,22.603 4.185,22.670 4.251 C 22.726 4.307,22.775 4.414,22.787 4.506 C 22.814 4.703,22.689 4.869,22.433 4.980 C 22.208 5.077,22.120 5.154,22.148 5.226 C 22.177 5.301,22.352 5.265,22.610 5.131 C 22.843 5.009,22.988 4.843,23.023 4.659 C 23.037 4.582,23.065 4.520,23.084 4.520 C 23.140 4.520,23.359 4.837,23.485 5.100 L 23.600 5.340 23.600 11.929 L 23.600 18.518 23.480 18.820 C 23.200 19.524,23.014 19.795,22.649 20.029 C 22.357 20.215,22.007 20.361,20.304 21.006 C 14.945 23.034,13.001 23.750,12.580 23.851 C 12.536 23.862,15.051 23.873,18.169 23.875 C 23.734 23.880,23.838 23.879,23.879 23.803 C 23.907 23.750,23.920 20.002,23.920 11.985 C 23.920 1.366,23.914 0.240,23.857 0.183 C 23.800 0.126,22.668 0.120,11.987 0.121 C 4.616 0.121,0.157 0.135,0.120 0.159 M22.512 5.141 C 22.500 5.153,22.478 5.131,22.463 5.092 C 22.441 5.035,22.445 5.030,22.485 5.069 C 22.512 5.096,22.525 5.129,22.512 5.141 M22.375 5.142 C 22.389 5.178,22.382 5.194,22.360 5.180 C 22.338 5.166,22.320 5.138,22.320 5.118 C 22.320 5.060,22.349 5.073,22.375 5.142 M22.280 5.160 C 22.280 5.182,22.261 5.200,22.238 5.200 C 22.214 5.200,22.206 5.182,22.220 5.160 C 22.234 5.138,22.253 5.120,22.262 5.120 C 22.272 5.120,22.280 5.138,22.280 5.160 M21.987 5.189 C 21.977 5.206,21.994 5.243,22.024 5.272 C 22.070 5.314,22.080 5.313,22.080 5.264 C 22.080 5.196,22.015 5.144,21.987 5.189 M5.404 9.299 C 4.851 9.691,3.619 10.628,3.459 10.778 C 3.364 10.868,3.327 10.932,3.344 10.977 C 3.378 11.066,3.640 11.194,4.208 11.400 L 4.676 11.569 4.688 14.995 C 4.697 17.555,4.713 18.447,4.749 18.529 C 4.778 18.594,4.874 18.676,4.988 18.733 C 5.254 18.866,6.579 19.362,6.740 19.388 C 7.000 19.430,6.988 19.588,7.016 15.863 C 7.029 14.017,7.049 12.498,7.059 12.488 C 7.068 12.478,7.352 12.572,7.688 12.696 C 8.282 12.914,8.440 12.955,8.440 12.888 C 8.440 12.753,6.098 9.154,5.963 9.082 C 5.832 9.012,5.783 9.031,5.404 9.299 M17.680 15.936 C 15.986 16.541,14.457 17.133,14.180 17.291 L 14.020 17.383 14.008 18.821 C 14.002 19.613,14.007 20.319,14.020 20.390 C 14.039 20.494,14.063 20.520,14.139 20.520 C 14.231 20.520,17.323 19.380,18.220 19.015 C 18.462 18.916,18.683 18.806,18.710 18.770 C 18.748 18.721,18.760 18.362,18.760 17.297 C 18.760 16.523,18.749 15.834,18.735 15.765 C 18.715 15.663,18.691 15.640,18.605 15.642 C 18.547 15.642,18.131 15.775,17.680 15.936 " stroke="none" fill-rule="evenodd" fill="#000000"></path></svg>
